src/assets/logos/logo-alt2.svg

<svg width="562" height="384" viewBox="0 0 562 384" fill="none" xmlns="http://www.w3.org/2000/svg">
<path fill-rule="evenodd" clip-rule="evenodd" d="M256 0.663192C253.525 0.873192 245.875 1.52419 239 2.11019C158.198 9.00019 83.353 39.3192 40.5 82.5192C16.619 106.595 2.95597 134.769 1.31297 163.327L0.69397 174.077H281H561.306L560.687 163.327C558.576 126.627 537.291 91.9532 499.383 63.4612C456.217 31.0172 397.731 10.1312 328.85 2.56119C315.402 1.08319 266.187 -0.198808 256 0.663192ZM3.63597 192.713L0.99997 195.35V286.759V378.168L3.45497 380.622L5.90897 383.077H281H556.091L558.545 380.622L561 378.168V317.259V256.35L558.364 253.713L555.727 251.077H449H342.273L339.636 253.713L337 256.35V310.213V364.077H281H225V279.713V195.35L222.364 192.713L219.727 190.077H113H6.27297L3.63597 192.713ZM213 286.577V371.077H113H13V286.577V202.077H113H213V286.577ZM549 317.077V371.077H449H349V317.077V263.077H449H549V317.077Z" fill="#2B17DE"/>
</svg>

<svg xmlns="http://www.w3.org/2000/svg" width="562" height="384" fill="none"><path fill="#2B17DE" fill-rule="evenodd" d="M256 .6632c-2.475.21-10.125.86099-17 1.44699-80.802 6.89-155.647 37.20901-198.5 80.40901C16.619 106.595 2.95597 134.769 1.31297 163.327l-.619 10.75H561.306l-.619-10.75c-2.111-36.7-23.396-71.3738-61.304-99.8658-43.166-32.444-101.652-53.33-170.533-60.90001-13.448-1.478-62.663-2.76-72.85-1.898ZM3.63597 192.713l-2.636 2.637v182.818l2.455 2.454 2.454 2.455H556.091l2.454-2.455 2.455-2.454V256.35l-2.636-2.637-2.637-2.636H342.273l-2.637 2.636L337 256.35v107.727H225V195.35l-2.636-2.637-2.637-2.636H6.27297l-2.637 2.636ZM213 286.577v84.5H13v-169h200v84.5Zm336 30.5v54H349v-108h200v54Z" clip-rule="evenodd"/></svg>
